usr/share/icons/biglinux-icons-material/scalable/apps/gnome-tweak-tool.svg

<?xml version="1.0" encoding="UTF-8" standalone="no"?>
<svg
   width="24"
   height="24"
   viewBox="0 0 24 24"
   fill="none"
   version="1.1"
   id="svg262"
   sodipodi:docname="systemsettings.svg"
   inkscape:export-filename="terminal.png"
   inkscape:export-xdpi="800"
   inkscape:export-ydpi="800"
   inkscape:version="1.2.2 (b0a8486541, 2022-12-01)"
   xmlns:inkscape="http://www.inkscape.org/namespaces/inkscape"
   xmlns:sodipodi="http://sodipodi.sourceforge.net/DTD/sodipodi-0.dtd"
   xmlns="http://www.w3.org/2000/svg"
   xmlns:svg="http://www.w3.org/2000/svg">
  <sodipodi:namedview
     id="namedview264"
     pagecolor="#ffffff"
     bordercolor="#000000"
     borderopacity="0.25"
     inkscape:showpageshadow="2"
     inkscape:pageopacity="0.0"
     inkscape:pagecheckerboard="0"
     inkscape:deskcolor="#d1d1d1"
     showgrid="false"
     inkscape:zoom="25.750472"
     inkscape:cx="7.7085966"
     inkscape:cy="13.261893"
     inkscape:window-width="2560"
     inkscape:window-height="1000"
     inkscape:window-x="1680"
     inkscape:window-y="0"
     inkscape:window-maximized="1"
     inkscape:current-layer="svg262" />
  <path
     fill-rule="evenodd"
     clip-rule="evenodd"
     d="M9.59604 1.11359C9.71588 1.11486 9.83043 1.0996 9.93969 1.06779C11.3755 0.973736 12.8111 0.977551 14.2467 1.07924C15.5484 1.18066 16.8085 1.46308 18.0269 1.9265C20.0525 2.76044 21.4386 4.2069 22.185 6.26586C22.6119 7.50549 22.8639 8.78021 22.9411 10.09C23.0478 11.7347 23.0096 13.3758 22.8265 15.0133C22.6895 16.1642 22.3916 17.271 21.933 18.3336C21.0824 20.1761 19.704 21.447 17.7978 22.1463C16.2531 22.6682 14.6647 22.943 13.0325 22.9706C11.1966 23.0661 9.37913 22.9287 7.57997 22.5585C4.26839 21.8208 2.22559 19.8018 1.45158 16.5017C1.12311 15.0161 0.974199 13.5124 1.00483 11.9906C0.968176 10.3724 1.14 8.77709 1.52031 7.20471C2.33171 4.11908 4.2905 2.20701 7.39669 1.46852C8.12048 1.29157 8.8536 1.17326 9.59604 1.11359Z"
     fill="url(#paint0_radial_3_321)"
     id="path249" />
  <defs
     id="defs260">
    <radialGradient
       id="paint0_radial_3_321"
       cx="0"
       cy="0"
       r="1"
       gradientUnits="userSpaceOnUse"
       gradientTransform="translate(12 1) rotate(90) scale(22)">
      <stop
         stop-color="#555555"
         id="stop255"
         offset="0"
         style="stop-color:#818181;stop-opacity:1;" />
      <stop
         offset="1"
         stop-color="#222222"
         id="stop257"
         style="stop-color:#35393c;stop-opacity:1;" />
    </radialGradient>
  </defs>
  <g
     fill-rule="evenodd"
     id="g7966"
     transform="matrix(0.53255226,0,0,0.53255226,-0.76953809,-9.2696043)"
     style="stroke-width:0.769">
    <rect
       x="9"
       y="34"
       width="30"
       height="2"
       rx="1"
       ry="0.95599997"
       color="#000000"
       fill="#ffffff"
       opacity="0.194"
       style="isolation:auto;mix-blend-mode:normal"
       id="rect7954" />
    <path
       d="m 9.961,33.988 c -0.557,0 -1.005,0.449 -1.005,1.006 0,0.557 0.448,1.005 1.005,1.005 h 21.056 v -2.011 z"
       color="#000000"
       fill="#3daee9"
       style="isolation:auto;mix-blend-mode:normal"
       id="path7956" />
    <circle
       cx="31.972"
       cy="34.938999"
       r="2.9119999"
       color="#000000"
       fill="#fafafa"
       style="isolation:auto;mix-blend-mode:normal"
       id="circle7958" />
    <rect
       x="9"
       y="44"
       width="30"
       height="2"
       rx="1"
       ry="0.82300001"
       color="#000000"
       fill="#ffffff"
       opacity="0.194"
       style="isolation:auto;mix-blend-mode:normal"
       id="rect7960" />
    <path
       d="m 9.961,43.988 c -0.557,0 -1.005,0.449 -1.005,1.006 0,0.557 0.448,1.005 1.005,1.005 h 11.056 v -2.011 z"
       color="#000000"
       fill="#3daee9"
       style="isolation:auto;mix-blend-mode:normal"
       id="path7962" />
    <circle
       cx="19.972"
       cy="44.938999"
       r="2.9119999"
       color="#000000"
       fill="#fafafa"
       style="isolation:auto;mix-blend-mode:normal"
       id="circle7964" />
  </g>
</svg>

<svg xmlns="http://www.w3.org/2000/svg" width="24" height="24" fill="none"><path fill="url(#a)" fill-rule="evenodd" d="M9.596 1.114c.12 0 .234-.014.344-.046a31.627 31.627 0 0 1 4.307.011c1.301.102 2.561.384 3.78.848 2.025.833 3.412 2.28 4.158 4.339.427 1.24.679 2.514.756 3.824a27.94 27.94 0 0 1-.114 4.923 11.88 11.88 0 0 1-.894 3.32c-.85 1.843-2.229 3.114-4.135 3.813a15.624 15.624 0 0 1-4.765.825 21.423 21.423 0 0 1-5.453-.413c-3.312-.737-5.354-2.756-6.128-6.056a19.047 19.047 0 0 1-.447-4.511 18.491 18.491 0 0 1 .515-4.786c.812-3.086 2.77-4.998 5.877-5.736a13.953 13.953 0 0 1 2.199-.355Z" clip-rule="evenodd"/><defs><radialGradient id="a" cx="0" cy="0" r="1" gradientTransform="matrix(0 22 -22 0 12 1)" gradientUnits="userSpaceOnUse"><stop offset="0" stop-color="#555" style="stop-color:#818181;stop-opacity:1"/><stop offset="1" stop-color="#222" style="stop-color:#35393c;stop-opacity:1"/></radialGradient></defs><g fill-rule="evenodd" color="#000" style="stroke-width:.769" transform="translate(-.77 -9.27) scale(.53255)"><rect width="30" height="2" x="9" y="34" fill="#fff" opacity=".194" rx="1" ry=".956" style="isolation:auto;mix-blend-mode:normal"/><path fill="#3daee9" d="M9.961 33.988c-.557 0-1.005.449-1.005 1.006 0 .557.448 1.005 1.005 1.005h21.056v-2.011z" style="isolation:auto;mix-blend-mode:normal"/><circle cx="31.972" cy="34.939" r="2.912" fill="#fafafa" style="isolation:auto;mix-blend-mode:normal"/><rect width="30" height="2" x="9" y="44" fill="#fff" opacity=".194" rx="1" ry=".823" style="isolation:auto;mix-blend-mode:normal"/><path fill="#3daee9" d="M9.961 43.988c-.557 0-1.005.449-1.005 1.006 0 .557.448 1.005 1.005 1.005h11.056v-2.011z" style="isolation:auto;mix-blend-mode:normal"/><circle cx="19.972" cy="44.939" r="2.912" fill="#fafafa" style="isolation:auto;mix-blend-mode:normal"/></g></svg>
